sources/design/Outline/question.svg

<svg:svg xmlns:cc="http://creativecommons.org/ns#" xmlns:dc="http://purl.org/dc/elements/1.1/" xmlns:inkscape="http://www.inkscape.org/namespaces/inkscape" xmlns:rdf="http://www.w3.org/1999/02/22-rdf-syntax-ns#" xmlns:sodipodi="http://sodipodi.sourceforge.net/DTD/sodipodi-0.dtd" xmlns:svg="http://www.w3.org/2000/svg" xml:space="preserve" width="1000" height="1000" version="1.1" style="clip-rule:evenodd;fill-rule:evenodd;image-rendering:optimizeQuality;shape-rendering:geometricPrecision;text-rendering:geometricPrecision" viewBox="0 0 1000 1000" id="svg10" sodipodi:docname="question.svg" inkscape:version="1.0.2 (e86c870879, 2021-01-15)"><svg:metadata id="metadata14"><rdf:RDF><cc:Work rdf:about=""><dc:format>image/svg+xml</dc:format><dc:type rdf:resource="http://purl.org/dc/dcmitype/StillImage" /><dc:title /></cc:Work></rdf:RDF></svg:metadata><sodipodi:namedview pagecolor="#ffffff" bordercolor="#666666" borderopacity="1" objecttolerance="10" gridtolerance="10" guidetolerance="10" inkscape:pageopacity="0" inkscape:pageshadow="2" inkscape:window-width="1920" inkscape:window-height="1007" id="namedview12" showgrid="false" inkscape:zoom="1.356" inkscape:cx="293.80644" inkscape:cy="411.42454" inkscape:window-x="1920" inkscape:window-y="0" inkscape:window-maximized="1" inkscape:current-layer="svg10" showguides="true" inkscape:guide-bbox="true" inkscape:document-rotation="0" inkscape:snap-to-guides="true" inkscape:pagecheckerboard="0"><sodipodi:guide position="0,1000" orientation="0,1" id="guide16" inkscape:label="" inkscape:locked="true" inkscape:color="rgb(0,0,255)" /><sodipodi:guide position="1763.3122,2036.1693" orientation="1000,0" id="guide18" /><sodipodi:guide position="0,200" orientation="0,1" id="guide20" inkscape:label="base" inkscape:locked="true" inkscape:color="rgb(0,0,255)" /><inkscape:grid type="xygrid" id="grid24" originx="-473.37552" originy="-489.69235" /><sodipodi:guide position="0,0" orientation="0,1" id="guide34" inkscape:label="bottom" inkscape:locked="true" inkscape:color="rgb(0,0,255)" /><sodipodi:guide position="225.05109,1693.3186" orientation="0,1" id="guide44" inkscape:label="" inkscape:locked="false" inkscape:color="rgb(0,0,255)" /><sodipodi:guide position="0,900" orientation="0,1" id="guide46" inkscape:label="" inkscape:locked="true" inkscape:color="rgb(0,0,255)" /><sodipodi:guide position="0,1000" orientation="0,1000" id="guide860" /><sodipodi:guide position="1000,1000" orientation="1000,0" id="guide862" /><sodipodi:guide position="1000,0" orientation="0,-1000" id="guide864" /><sodipodi:guide position="0,0" orientation="-1000,0" id="guide866" /><sodipodi:guide position="323.00885,358.40708" orientation="-1,0" id="guide861" inkscape:label="width" inkscape:locked="false" inkscape:color="rgb(0,0,255)" /></sodipodi:namedview>
 <svg:defs id="defs4"><inkscape:path-effect effect="fillet_chamfer" id="path-effect861" is_visible="true" lpeversion="1" satellites_param="F,0,0,1,0,11.448198,0,1 @ F,0,0,1,0,17.366729,0,1 @ F,0,0,1,0,0,0,1 @ F,0,0,1,0,0,0,1 @ F,0,0,1,0,0,0,1 @ F,0,0,1,0,0,0,1 @ F,0,0,1,0,0,0,1 @ F,0,0,1,0,0,0,1 @ F,0,0,1,0,0,0,1 @ F,0,0,1,0,0,0,1 @ F,0,0,1,0,0,0,1 @ F,0,0,1,0,9.2122029,0,1 @ F,0,0,1,0,10.967188,0,1 @ F,0,0,1,0,0,0,1 @ F,0,0,1,0,0,0,1 @ F,0,0,1,0,0,0,1 @ F,0,0,1,0,0,0,1 @ F,0,0,1,0,0,0,1 @ F,0,0,1,0,0,0,1 @ F,0,0,1,0,0,0,1 @ F,0,0,1,0,0,0,1" unit="px" method="auto" mode="F" radius="0" chamfer_steps="1" flexible="false" use_knot_distance="true" apply_no_radius="true" apply_with_radius="true" only_selected="true" hide_knots="false" /><inkscape:path-effect effect="spiro" id="path-effect863" is_visible="true" lpeversion="1" /><inkscape:path-effect effect="spiro" id="path-effect873" is_visible="true" lpeversion="1" /><inkscape:path-effect effect="spiro" id="path-effect859" is_visible="true" lpeversion="1" /><inkscape:path-effect effect="spiro" id="path-effect862" is_visible="true" lpeversion="1" /><inkscape:path-effect effect="spiro" id="path-effect1521" is_visible="true" lpeversion="1" /><inkscape:path-effect effect="spiro" id="path-effect858" is_visible="true" lpeversion="1" /><inkscape:path-effect effect="spiro" id="path-effect854" is_visible="true" lpeversion="1" />
  <svg:style type="text/css" id="style2">
   
    .fil0 {fill:#EF7F1A;fill-rule:nonzero}
   
  </svg:style>
 <inkscape:path-effect effect="spiro" id="path-effect1214" is_visible="true" lpeversion="1" /><inkscape:path-effect effect="spiro" id="path-effect1195" is_visible="true" lpeversion="1" /><inkscape:path-effect effect="spiro" id="path-effect992" is_visible="true" lpeversion="1" /><inkscape:path-effect effect="spiro" id="path-effect287" is_visible="true" lpeversion="1" /><inkscape:path-effect effect="spiro" id="path-effect1032" is_visible="true" lpeversion="1" /><inkscape:path-effect effect="spiro" id="path-effect1218" is_visible="true" lpeversion="1" /><inkscape:path-effect effect="spiro" id="path-effect309" is_visible="true" lpeversion="1" /><inkscape:path-effect effect="spiro" id="path-effect1176" is_visible="true" lpeversion="1" /><inkscape:path-effect effect="spiro" id="path-effect1026" is_visible="true" lpeversion="1" /><inkscape:path-effect effect="spiro" id="path-effect1030" is_visible="true" lpeversion="1" /></svg:defs>
 
<svg:g id="path859"><svg:path style="color:#000000;clip-rule:nonzero;fill:#1a5fb4;fill-rule:nonzero;stroke-linecap:round;stroke-linejoin:round;-inkscape-stroke:none;paint-order:fill stroke markers;shape-rendering:auto" d="M 176.93555,606.78125 C 117.7527,606.78125 70.990234,657.68688 70.990234,717.5332 C 70.990234,777.3795299999999 117.7527,828.2851599999999 176.93555,828.2851599999999 C 236.11839,828.2851499999999 282.88086,777.37952 282.88086,717.5331999999999 C 282.88086,657.6868799999999 236.11838999999998,606.7812599999999 176.93554999999998,606.7812499999999 L 176.93555,606.78125 M 176.93555,666.78125 C 201.63957,666.78125 222.88086,688.18298 222.88086,717.5332 C 222.88086,746.88342 201.63957000000002,768.2851499999999 176.93555,768.2851599999999 C 152.23153000000002,768.2851599999999 130.99023,746.8834299999999 130.99023,717.5331999999999 C 130.99023,688.1829799999998 152.23153,666.7812499999999 176.93555,666.7812499999999 L 176.93555,666.78125" id="path11622" /></svg:g><svg:g id="path861"><svg:path style="color:#000000;clip-rule:nonzero;fill:#1a5fb4;fill-rule:nonzero;stroke-linecap:round;stroke-linejoin:round;-inkscape-stroke:none;paint-order:fill stroke markers;shape-rendering:auto" d="M 178.93164,69.826172 C 166.93712,69.574425 154.92298,70.510461 143.0957,72.617187 C 111.59101,78.228941 82.11173699999999,91.979879 57.439453,111.84375 C 18.718687000000003,143.01818 -5.946965399999996,187.19723 -17.513672,233.34766000000002 C -26.682068,269.92897000000005 -27.904576,308.24647000000004 -21.234375,345.29492000000005 C -18.900278,358.25925000000007 -9.8152133,371.19063000000006 2.9355468999999985,376.93555000000003 C 15.686307,382.68046000000004 30.359192999999998,381.12262000000004 41.53125,375.09375000000006 L 105.07616999999999,340.80273000000005 C 124.77449999999999,330.17275000000006 130.38973,302.21600000000007 120.91601999999999,284.96680000000003 C 115.22403999999999,274.60317000000003 113.73489,260.94962000000004 117.06445,250.02344000000005 C 121.02927,237.01262000000006 132.95177999999999,224.83150000000006 145.875,220.58984000000004 C 158.86293,216.32694000000004 175.80482,218.92833000000005 187.46094,227.04297000000003 C 199.26228,235.25871000000004 207.97455,250.36498000000003 209.4375,265.21484000000004 C 210.48812,275.87927 208.38947,288.00430000000006 203.68359,299.83203000000003 C 198.93416000000002,311.76925000000006 191.53533000000002,323.71290000000005 182.54687,335.60742000000005 C 167.06185000000002,356.09893000000005 147.12837000000002,376.0017 127.70508000000001,399.41797 C 108.20581000000001,422.92583 89.00145400000001,450.55093 79.84375,484.49023 C 70.499494,519.12091 73.357123,556.06414 87.488281,588.81836 C 96.664203,610.08697 113.14592,617.74723 134.08398,615.37891 L 241.29492,603.25195 C 250.78065999999998,602.17901 264.30557999999996,595.9956 270.21289,582.73437 C 276.1202,569.47315 271.95438,556.07363 266.83008,548.31836 C 259.18439,536.74713 253.15729000000002,524.05135 249.04102,510.82812 C 243.79127,493.96369000000004 242.01233,476.79920000000004 244.73437,461.64844 C 248.72854,439.41709 263.56526,416.47798 282.05859,392.89062 C 300.70254,369.11117 323.87599,343.11809 338.0918,308.11133 C 355.63334,264.91488000000004 354.70054,215.84158000000002 335.80469,173.32422 C 316.91891,130.82953 281.24118,97.384741 237.79492,81.074219 C 218.86035,73.965835 198.9225,70.24575 178.93164,69.826172 M 177.63672,129.84375 C 191.04384,130.13629 204.37305,132.61569 216.70703,137.24609 C 244.65479,147.73819 268.89152,170.49897 280.97656,197.69141000000002 C 293.05153,224.86116 293.65087,258.07783 282.5,285.53711 C 276.91122,299.2996 267.76375,312.8979 257.18164,327.01953 C 257.91617,325.33630999999997 258.74537000000004,323.73854 259.43164,322.01367 C 266.98237,303.0357 271.34833000000003,281.66229999999996 269.14844,259.33203 C 265.94585,226.82381999999998 248.99605,196.77409999999998 221.74219,177.80077999999997 C 194.3431,158.72635999999997 159.39031,153.00472999999997 127.16405999999999,163.58202999999997 C 94.77155099999999,174.21390999999997 69.60788399999998,199.92110999999997 59.669921999999985,232.53319999999997 C 53.205072999999985,253.74803999999997 53.89401999999998,276.05720999999994 60.798827999999986,296.51757999999995 L 34.980468999999985,310.45116999999993 C 33.724381999999984,289.45922999999993 35.595824999999984,268.25100999999995 40.687499999999986,247.93554999999992 C 49.521619999999984,212.68796999999992 68.42330399999999,180.0287199999999 95.06640599999999,158.57811999999993 C 112.01908999999999,144.92936999999992 132.51092999999997,135.44703999999993 153.61719,131.68749999999994 C 161.51901999999998,130.27998999999994 169.59244999999999,129.66821999999993 177.63672,129.84374999999994 L 177.63672,129.84375 M 200.71875,407.25 C 194.00029,420.58324 188.55253,435.04896 185.67969,451.03906 C 180.82976,478.03356 184.27458,504.6416 191.75195,528.66211 C 193.76525999999998,535.1297099999999 196.20547,541.44092 198.83789,547.6699199999999 L 138.82030999999998,554.4589799999999 C 133.56862999999998,536.8733899999999 133.06119999999999,517.5778499999999 137.77147999999997,500.12108999999987 C 143.46595999999997,479.01684999999986 156.98569999999998,458.09772999999984 173.88476999999997,437.72460999999987 C 182.15857999999997,427.7498899999999 191.32419,417.75378999999987 200.71874999999997,407.2499999999999 L 200.71875,407.25" id="path11628" /></svg:g></svg:svg>

<svg:svg xmlns:cc="http://creativecommons.org/ns#" xmlns:dc="http://purl.org/dc/elements/1.1/" xmlns:inkscape="http://www.inkscape.org/namespaces/inkscape" xmlns:rdf="http://www.w3.org/1999/02/22-rdf-syntax-ns#" xmlns:sodipodi="http://sodipodi.sourceforge.net/DTD/sodipodi-0.dtd" xmlns:svg="http://www.w3.org/2000/svg" xml:space="preserve" width="1000" height="1000" version="1.1" style="clip-rule:evenodd;fill-rule:evenodd;image-rendering:optimizeQuality;shape-rendering:geometricPrecision;text-rendering:geometricPrecision" viewBox="0 0 1000 1000" id="svg10" sodipodi:docname="question.svg" inkscape:version="1.0.2 (e86c870879, 2021-01-15)"><svg:metadata id="metadata14"><rdf:RDF><cc:Work rdf:about=""><dc:format>image/svg+xml</dc:format><dc:type rdf:resource="http://purl.org/dc/dcmitype/StillImage" /><dc:title /></cc:Work></rdf:RDF></svg:metadata><sodipodi:namedview pagecolor="#ffffff" bordercolor="#666666" borderopacity="1" objecttolerance="10" gridtolerance="10" guidetolerance="10" inkscape:pageopacity="0" inkscape:pageshadow="2" inkscape:window-width="1920" inkscape:window-height="1007" id="namedview12" showgrid="false" inkscape:zoom="1.356" inkscape:cx="293.80644" inkscape:cy="411.42454" inkscape:window-x="1920" inkscape:window-y="0" inkscape:window-maximized="1" inkscape:current-layer="svg10" showguides="true" inkscape:guide-bbox="true" inkscape:document-rotation="0" inkscape:snap-to-guides="true" inkscape:pagecheckerboard="0"><sodipodi:guide position="0,1000" orientation="0,1" id="guide16" inkscape:label="" inkscape:locked="true" inkscape:color="rgb(0,0,255)" /><sodipodi:guide position="1763.3122,2036.1693" orientation="1000,0" id="guide18" /><sodipodi:guide position="0,200" orientation="0,1" id="guide20" inkscape:label="base" inkscape:locked="true" inkscape:color="rgb(0,0,255)" /><inkscape:grid type="xygrid" id="grid24" originx="-473.37552" originy="-489.69235" /><sodipodi:guide position="0,0" orientation="0,1" id="guide34" inkscape:label="bottom" inkscape:locked="true" inkscape:color="rgb(0,0,255)" /><sodipodi:guide position="225.05109,1693.3186" orientation="0,1" id="guide44" inkscape:label="" inkscape:locked="false" inkscape:color="rgb(0,0,255)" /><sodipodi:guide position="0,900" orientation="0,1" id="guide46" inkscape:label="" inkscape:locked="true" inkscape:color="rgb(0,0,255)" /><sodipodi:guide position="0,1000" orientation="0,1000" id="guide860" /><sodipodi:guide position="1000,1000" orientation="1000,0" id="guide862" /><sodipodi:guide position="1000,0" orientation="0,-1000" id="guide864" /><sodipodi:guide position="0,0" orientation="-1000,0" id="guide866" /><sodipodi:guide position="323.00885,358.40708" orientation="-1,0" id="guide861" inkscape:label="width" inkscape:locked="false" inkscape:color="rgb(0,0,255)" /></sodipodi:namedview>
 <svg:defs id="defs4"><inkscape:path-effect effect="fillet_chamfer" id="path-effect861" is_visible="true" lpeversion="1" satellites_param="F,0,0,1,0,11.448198,0,1 @ F,0,0,1,0,17.366729,0,1 @ F,0,0,1,0,0,0,1 @ F,0,0,1,0,0,0,1 @ F,0,0,1,0,0,0,1 @ F,0,0,1,0,0,0,1 @ F,0,0,1,0,0,0,1 @ F,0,0,1,0,0,0,1 @ F,0,0,1,0,0,0,1 @ F,0,0,1,0,0,0,1 @ F,0,0,1,0,0,0,1 @ F,0,0,1,0,9.2122029,0,1 @ F,0,0,1,0,10.967188,0,1 @ F,0,0,1,0,0,0,1 @ F,0,0,1,0,0,0,1 @ F,0,0,1,0,0,0,1 @ F,0,0,1,0,0,0,1 @ F,0,0,1,0,0,0,1 @ F,0,0,1,0,0,0,1 @ F,0,0,1,0,0,0,1 @ F,0,0,1,0,0,0,1" unit="px" method="auto" mode="F" radius="0" chamfer_steps="1" flexible="false" use_knot_distance="true" apply_no_radius="true" apply_with_radius="true" only_selected="true" hide_knots="false" /><inkscape:path-effect effect="spiro" id="path-effect863" is_visible="true" lpeversion="1" /><inkscape:path-effect effect="spiro" id="path-effect873" is_visible="true" lpeversion="1" /><inkscape:path-effect effect="spiro" id="path-effect859" is_visible="true" lpeversion="1" /><inkscape:path-effect effect="spiro" id="path-effect862" is_visible="true" lpeversion="1" /><inkscape:path-effect effect="spiro" id="path-effect1521" is_visible="true" lpeversion="1" /><inkscape:path-effect effect="spiro" id="path-effect858" is_visible="true" lpeversion="1" /><inkscape:path-effect effect="spiro" id="path-effect854" is_visible="true" lpeversion="1" />
  <svg:style type="text/css" id="style2">
   
    .fil0 {fill:#EF7F1A;fill-rule:nonzero}
   
  </svg:style>
 <inkscape:path-effect effect="spiro" id="path-effect1214" is_visible="true" lpeversion="1" /><inkscape:path-effect effect="spiro" id="path-effect1195" is_visible="true" lpeversion="1" /><inkscape:path-effect effect="spiro" id="path-effect992" is_visible="true" lpeversion="1" /><inkscape:path-effect effect="spiro" id="path-effect287" is_visible="true" lpeversion="1" /><inkscape:path-effect effect="spiro" id="path-effect1032" is_visible="true" lpeversion="1" /><inkscape:path-effect effect="spiro" id="path-effect1218" is_visible="true" lpeversion="1" /><inkscape:path-effect effect="spiro" id="path-effect309" is_visible="true" lpeversion="1" /><inkscape:path-effect effect="spiro" id="path-effect1176" is_visible="true" lpeversion="1" /><inkscape:path-effect effect="spiro" id="path-effect1026" is_visible="true" lpeversion="1" /><inkscape:path-effect effect="spiro" id="path-effect1030" is_visible="true" lpeversion="1" /></svg:defs>
 
<svg:g id="path859"><svg:path style="color:#000000;clip-rule:nonzero;fill:#1a5fb4;fill-rule:nonzero;stroke-width:60px;stroke-linecap:round;stroke-linejoin:round;-inkscape-stroke:none;paint-order:stroke fill markers;shape-rendering:auto" d="m 252.88153,717.53286 a 75.945381,80.752399 0 0 1 -75.94537,80.7524 75.945381,80.752399 0 0 1 -75.94538,-80.7524 75.945381,80.752399 0 0 1 75.94538,-80.7524 75.945381,80.752399 0 0 1 75.94537,80.7524 z" id="path11604" /></svg:g><svg:g id="path861"><svg:path style="color:#000000;clip-rule:nonzero;fill:#1a5fb4;fill-rule:nonzero;stroke-linecap:round;stroke-linejoin:round;-inkscape-stroke:none;shape-rendering:auto" d="m 178.93164,69.826172 c -11.99452,-0.251747 -24.00866,0.684289 -35.83594,2.791015 -31.50469,5.611754 -60.983963,19.362692 -85.656247,39.226563 -38.720766,31.17443 -63.3864184,75.35348 -74.953125,121.50391 -9.168396,36.58131 -10.390904,74.89881 -3.720703,111.94726 2.334097,12.96433 11.4191617,25.89571 24.1699219,31.64063 12.7507601,5.74491 27.4236461,4.18707 38.5957031,-1.8418 l 63.54492,-34.29102 c 19.69833,-10.62998 25.31356,-38.58673 15.83985,-55.83593 -5.69198,-10.36363 -7.18113,-24.01718 -3.85157,-34.94336 3.96482,-13.01082 15.88733,-25.19194 28.81055,-29.4336 12.98793,-4.2629 29.92982,-1.66151 41.58594,6.45313 11.80134,8.21574 20.51361,23.32201 21.97656,38.17187 1.05062,10.66443 -1.04803,22.78946 -5.75391,34.61719 -4.74943,11.93722 -12.14826,23.88087 -21.13672,35.77539 -15.48502,20.49151 -35.4185,40.39428 -54.84179,63.81055 -19.49927,23.50786 -38.703626,51.13296 -47.86133,85.07226 -9.344256,34.63068 -6.486627,71.57391 7.644531,104.32813 9.175922,21.26861 25.657639,28.92887 46.595699,26.56055 l 107.21094,-12.12696 c 9.48574,-1.07294 23.01066,-7.25635 28.91797,-20.51758 5.90731,-13.26122 1.74149,-26.66074 -3.38281,-34.41601 -7.64569,-11.57123 -13.67279,-24.26701 -17.78906,-37.49024 -5.24975,-16.86443 -7.02869,-34.02892 -4.30665,-49.17968 3.99417,-22.23135 18.83089,-45.17046 37.32422,-68.75782 18.64395,-23.77945 41.8174,-49.77253 56.03321,-84.77929 17.54154,-43.19645 16.60874,-92.26975 -2.28711,-134.78711 C 316.91891,130.82953 281.24118,97.384741 237.79492,81.074219 218.86035,73.965835 198.9225,70.24575 178.93164,69.826172 Z m -1.29492,60.017578 c 13.40712,0.29254 26.73633,2.77194 39.07031,7.40234 27.94776,10.4921 52.18449,33.25288 64.26953,60.44532 12.07497,27.16975 12.67431,60.38642 1.52344,87.8457 -5.58878,13.76249 -14.73625,27.36079 -25.31836,41.48242 0.73453,-1.68322 1.56373,-3.28099 2.25,-5.00586 7.55073,-18.97797 11.91669,-40.35137 9.7168,-62.68164 -3.20259,-32.50821 -20.15239,-62.55793 -47.40625,-81.53125 -27.39909,-19.07442 -62.35188,-24.79605 -94.57813,-14.21875 -32.392509,10.63188 -57.556176,36.33908 -67.494138,68.95117 -6.464849,21.21484 -5.775902,43.52401 1.128906,63.98438 l -25.818359,13.93359 c -1.256087,-20.99194 0.615356,-42.20016 5.707031,-62.51562 8.83412,-35.24758 27.735804,-67.90683 54.378906,-89.35743 16.952684,-13.64875 37.444524,-23.13108 58.550784,-26.89062 7.90183,-1.40751 15.97526,-2.01928 24.01953,-1.84375 z M 200.71875,407.25 c -6.71846,13.33324 -12.16622,27.79896 -15.03906,43.78906 -4.84993,26.9945 -1.40511,53.60254 6.07226,77.62305 2.01331,6.4676 4.45352,12.77881 7.08594,19.00781 l -60.01758,6.78906 c -5.25168,-17.58559 -5.75911,-36.88113 -1.04883,-54.33789 5.69448,-21.10424 19.21422,-42.02336 36.11329,-62.39648 8.27381,-9.97472 17.43942,-19.97082 26.83398,-30.47461 z" id="path11610" /></svg:g></svg:svg>
